examples/lut/ARRI_LogC2Video_709_autodesk3d_33.3dl
0 128 256 384 512 640 768 896 1024 1152 1280 1408 1536 1664 1792 1920 2048 2175 2303 2431 2559 2687 2815 2943 3071 3199 3327 3455 3583 3711 3839 3967 4095
0 0 0
0 0 0
0 0 2
0 0 6
0 0 14
0 0 27
0 0 46
0 0 71
0 0 104
0 0 143
0 0 190
0 0 243
0 0 299
0 0 358
0 0 421
0 0 485
0 0 549
0 0 614
0 0 681
0 0 747
0 0 815
0 0 882
0 0 951
0 0 1022
0 0 1093
0 0 1166
0 0 1240
0 0 1314
0 0 1389
0 0 1464
0 0 1539
0 0 1614
0 0 1688
2 4 2
1 5 4
0 5 10
0 3 19
0 1 34
0 0 55
0 0 84
0 0 121
0 0 165
0 0 218
0 0 275
0 0 336
0 0 403
0 0 475
0 0 550
0 0 627
0 0 702
0 0 776
0 0 850
0 0 923
0 0 995
0 0 1068
0 0 1140
0 0 1213
0 0 1287
0 0 1362
0 0 1437
0 0 1512
0 0 1587
0 0 1663
0 0 1737
0 0 1812
0 0 1885
2 20 5
0 21 11
0 22 21
0 21 36
0 18 59
0 14 88
0 7 127
0 0 175
0 0 232
0 0 293
0 0 360
0 0 433
0 0 512
0 0 597
0 0 686
0 0 775
0 0 863
0 0 947
0 0 1028
0 0 1108
0 0 1186
0 0 1262
0 0 1338
0 0 1412
0 0 1488
0 0 1563
0 0 1639
0 0 1715
0 0 1790
0 0 1864
0 0 1938
0 0 2011
0 0 2082
0 52 5
0 55 15
0 56 30
0 56 53
0 54 83
0 49 122
0 41 171
0 31 230
0 17 295
0 0 367
0 0 447
0 0 532
0 0 624
0 0 722
0 0 823
0 0 926
0 0 1026
0 0 1121
0 0 1210
0 0 1296
0 0 1380
0 0 1461
0 0 1539
0 0 1616
0 0 1691
0 0 1767
0 0 1843
0 0 1918
0 0 1992
0 0 2065
0 0 2137
0 0 2207
0 0 2276
0 105 0
0 109 12
0 112 34
0 112 64
0 110 103
0 105 152
0 98 211
0 87 279
0 70 355
0 46 440
0 11 533
0 0 631
0 0 735
0 0 846
0 0 959
0 0 1074
0 0 1187
0 0 1294
0 0 1392
0 0 1485
0 0 1575
0 0 1660
0 0 1741
0 0 1819
0 0 1896
0 0 1971
0 0 2046
0 0 2120
0 0 2192
0 0 2263
0 0 2332
0 0 2399
0 0 2463
0 182 0
0 188 0
0 191 30
0 193 68
0 191 117
0 187 175
0 180 245
0 167 324
0 146 412
0 115 509
0 71 615
0 12 726
0 0 843
0 0 965
0 0 1091
0 0 1218
0 0 1342
0 0 1461
0 0 1570
0 0 1670
0 0 1764
0 0 1854
0 0 1938
0 0 2018
0 0 2095
0 0 2169
0 0 2243
0 0 2314
0 0 2384
0 0 2452
0 0 2518
0 0 2581
0 0 2642
0 280 0
0 289 0
0 293 15
0 295 62
0 295 120
0 292 190
0 286 271
0 274 362
0 252 463
0 215 572
0 162 690
0 90 813
0 0 942
0 0 1076
0 0 1213
0 0 1351
0 0 1487
0 0 1616
0 0 1736
0 0 1843
0 0 1944
0 0 2038
0 0 2126
0 0 2208
0 0 2286
0 0 2359
0 0 2431
0 0 2501
0 0 2568
0 0 2633
0 0 2695
0 0 2755
0 0 2811
0 384 0
0 399 0
0 407 0
0 412 41
0 415 108
0 416 188
0 414 282
0 406 388
0 389 502
0 360 624
0 314 754
0 241 889
0 132 1030
0 0 1175
0 0 1324
0 0 1472
0 0 1619
0 0 1758
0 0 1888
0 0 2004
0 0 2111
0 0 2211
0 0 2303
0 0 2387
0 0 2466
0 0 2540
0 0 2610
0 0 2678
0 0 2743
0 0 2806
0 0 2865
0 0 2922
0 0 2976
0 508 0
0 526 0
0 540 0
0 549 1
0 557 77
0 562 165
0 564 276
0 561 399
0 550 528
0 528 664
0 494 806
0 440 954
0 358 1107
0 223 1264
0 29 1423
0 0 1582
0 0 1738
0 0 1888
0 0 2027
0 0 2151
0 0 2266
0 0 2371
0 0 2467
0 0 2555
0 0 2636
0 0 2710
0 0 2780
0 0 2847
0 0 2911
0 0 2973
0 0 3031
0 0 3086
0 0 3139
0 653 0
0 674 0
0 694 0
0 708 0
0 720 26
0 730 122
0 737 250
0 738 395
0 732 541
0 718 692
0 693 848
0 654 1009
0 595 1174
0 510 1343
0 378 1512
0 150 1681
0 0 1846
0 0 2005
0 0 2153
0 0 2286
0 0 2407
0 0 2518
0 0 2619
0 0 2712
0 0 2795
0 0 2872
0 0 2943
0 0 3011
0 0 3075
0 0 3136
0 0 3193
0 0 3248
0 0 3299
0 822 0
0 847 0
0 872 0
0 890 0
0 906 0
0 921 56
0 932 198
0 938 374
0 938 543
0 930 712
0 913 883
0 885 1058
0 843 1235
0 782 1414
0 697 1594
0 576 1772
0 392 1946
0 61 2112
0 0 2267
0 0 2407
0 0 2535
0 0 2652
0 0 2758
0 0 2854
0 0 2942
0 0 3021
0 0 3094
0 0 3161
0 0 3226
0 0 3287
0 0 3344
0 0 3397
0 0 3447
0 1015 0
0 1045 0
0 1074 0
0 1097 0
0 1118 0
0 1137 0
0 1152 118
0 1162 334
0 1167 534
0 1165 724
0 1154 911
0 1134 1099
0 1102 1288
0 1057 1477
0 994 1665
0 911 1850
0 801 2030
0 652 2202
0 439 2362
0 61 2508
0 0 2642
0 0 2764
0 0 2876
0 0 2977
0 0 3068
0 0 3151
0 0 3226
0 0 3296
0 0 3362
0 0 3423
0 0 3480
0 0 3534
0 0 3583
0 1230 0
0 1265 0
0 1297 0
0 1324 0
0 1348 0
0 1370 0
0 1388 1
0 1402 254
0 1409 503
0 1411 719
0 1405 924
0 1390 1126
0 1366 1325
0 1330 1523
0 1281 1719
0 1218 1910
0 1137 2095
0 1038 2272
0 916 2436
0 764 2588
0 565 2728
0 247 2857
0 0 2974
0 0 3080
0 0 3176
0 0 3263
0 0 3342
0 0 3414
0 0 3482
0 0 3545
0 0 3603
0 0 3657
0 0 3707
0 1454 0
0 1492 0
0 1527 0
0 1558 0
0 1586 0
0 1611 0
0 1631 0
0 1647 119
0 1658 443
0 1662 695
0 1660 922
0 1649 1138
0 1630 1349
0 1601 1555
0 1561 1757
0 1510 1954
0 1447 2144
0 1371 2325
0 1282 2493
0 1179 2651
0 1060 2797
0 922 2932
0 758 3054
0 549 3166
0 222 3267
0 0 3359
0 0 3442
0 0 3517
0 0 3587
0 0 3653
0 0 3713
0 0 3768
0 0 3818
0 1682 0
0 1722 0
0 1759 0
0 1794 0
0 1825 0
0 1853 0
0 1876 0
0 1895 0
0 1907 351
0 1914 656
0 1914 908
0 1907 1140
0 1892 1361
0 1868 1576
0 1835 1784
0 1793 1986
0 1740 2179
0 1678 2363
0 1607 2537
0 1527 2700
0 1438 2851
0 1341 2991
0 1235 3119
0 1120 3236
0 994 3343
0 854 3439
0 694 3526
0 496 3606
0 194 3679
0 0 3747
0 0 3810
0 0 3869
0 0 3924
0 1913 0
0 1954 0
0 1992 0
0 2028 0
0 2062 0
0 2091 0
0 2117 0
0 2138 0
0 2153 227
0 2161 610
0 2164 889
0 2159 1136
0 2148 1368
0 2128 1589
0 2100 1803
0 2064 2008
0 2020 2205
0 1968 2392
0 1909 2570
0 1843 2738
0 1771 2894
0 1694 3038
0 1612 3172
0 1526 3293
0 1437 3405
0 1345 3505
0 1251 3597
0 1153 3681
0 1050 3759
0 940 3832
0 822 3901
0 689 3965
0 533 4026
0 2145 0
0 2185 0
0 2224 0
0 2261 0
0 2295 0
0 2325 0
0 2351 0
0 2373 0
0 2390 107
0 2400 571
0 2405 876
0 2403 1136
0 2395 1375
0 2379 1602
0 2355 1819
0 2325 2027
0 2288 2226
0 2243 2417
0 2193 2597
0 2137 2768
0 2076 2927
0 2011 3075
0 1942 3213
0 1872 3338
0 1800 3454
0 1726 3559
0 1652 3657
0 1578 3747
0 1503 3832
0 1427 3911
0 1351 3985
0 1273 4055
0 1194 4095
0 2375 0
0 2416 0
0 2455 0
0 2491 0
0 2524 0
0 2554 0
0 2581 0
0 2603 0
0 2620 23
0 2632 551
0 2638 877
0 2638 1145
0 2632 1389
0 2619 1618
0 2600 1836
0 2574 2045
0 2541 2245
0 2503 2437
0 2459 2619
0 2410 2791
0 2357 2952
0 2301 3103
0 2241 3243
0 2181 3373
0 2118 3494
0 2055 3606
0 1993 3710
0 1930 3807
0 1867 3898
0 1805 3983
0 1743 4063
0 1682 4095
0 1621 4095
0 2604 0
0 2643 0
0 2680 0
0 2715 0
0 2747 0
0 2776 0
0 2802 0
0 2823 0
0 2841 0
0 2853 556
0 2860 892
0 2861 1164
0 2857 1409
0 2847 1638
0 2831 1856
0 2808 2065
0 2780 2264
0 2747 2455
0 2708 2637
0 2665 2810
0 2619 2973
0 2569 3126
0 2517 3270
0 2464 3405
0 2409 3531
0 2354 3649
0 2298 3759
0 2243 3862
0 2187 3958
0 2133 4049
0 2079 4095
0 2026 4095
0 1975 4095
0 2826 0
0 2862 0
0 2897 0
0 2930 0
0 2961 0
0 2989 0
0 3013 0
0 3034 0
0 3051 22
0 3064 595
0 3071 929
0 3074 1199
0 3071 1442
0 3063 1669
0 3049 1884
0 3030 2090
0 3006 2288
0 2977 2477
0 2943 2658
0 2906 2831
0 2865 2995
0 2822 3150
0 2776 3298
0 2729 3436
0 2680 3566
0 2631 3689
0 2581 3804
0 2531 3913
0 2481 4015
0 2432 4095
0 2383 4095
0 2343 4095
0 2343 4095
0 3041 0
0 3075 0
0 3107 0
0 3138 0
0 3167 0
0 3193 0
0 3216 0
0 3236 0
0 3252 147
0 3265 672
0 3273 990
0 3276 1253
0 3275 1490
0 3268 1712
0 3257 1923
0 3241 2125
0 3220 2319
0 3196 2505
0 3167 2685
0 3135 2856
0 3100 3021
0 3062 3178
0 3022 3327
0 2980 3468
0 2936 3602
0 2892 3729
0 2846 3848
0 2801 3961
0 2756 4068
0 2711 4095
0 2671 4095
0 2670 4095
0 2669 4095
0 3250 0
0 3282 0
0 3312 0
0 3340 0
0 3367 0
0 3391 0
0 3412 0
0 3431 0
0 3446 359
0 3458 781
0 3466 1076
0 3469 1327
0 3469 1555
0 3464 1769
0 3456 1973
0 3443 2169
0 3427 2359
0 3406 2541
0 3383 2718
0 3355 2888
0 3325 3052
0 3292 3209
0 3256 3359
0 3219 3502
0 3180 3639
0 3140 3769
0 3099 3892
0 3058 4009
0 3016 4095
0 2975 4095
0 2970 4095
0 2969 4095
0 2968 4095
0 3453 0
0 3482 0
0 3510 0
0 3536 0
0 3561 0
0 3583 0
0 3602 0
0 3619 0
0 3633 568
0 3644 914
0 3652 1182
0 3656 1417
0 3657 1634
0 3655 1838
0 3650 2034
0 3640 2224
0 3627 2408
0 3611 2586
0 3591 2759
0 3568 2927
0 3542 3089
0 3513 3245
0 3482 3396
0 3449 3540
0 3414 3678
0 3378 3810
0 3341 3936
0 3303 4056
0 3265 4095
0 3251 4095
0 3249 4095
0 3248 4095
0 3248 4095
0 3650 0
0 3677 0
0 3703 0
0 3727 0
0 3749 0
0 3769 0
0 3787 0
0 3802 334
0 3816 767
0 3827 1057
0 3835 1299
0 3841 1517
0 3843 1722
0 3843 1917
0 3840 2105
0 3833 2287
0 3823 2465
0 3810 2639
0 3794 2808
0 3774 2973
0 3752 3132
0 3727 3287
0 3700 3437
0 3671 3582
0 3640 3721
0 3608 3854
0 3574 3982
0 3540 4095
0 3516 4095
0 3515 4095
0 3514 4095
0 3513 4095
0 3513 4095
0 3841 0
0 3866 0
0 3890 0
0 3912 0
0 3932 0
0 3950 0
0 3967 71
0 3983 637
0 3996 951
0 4008 1201
0 4017 1421
0 4023 1625
0 4028 1817
0 4029 2003
0 4027 2183
0 4023 2359
0 4016 2531
0 4005 2700
0 3992 2864
0 3976 3025
0 3957 3182
0 3936 3335
0 3912 3484
0 3887 3627
0 3859 3766
0 3830 3900
0 3799 4029
0 3767 4095
0 3765 4095
0 3764 4095
0 3762 4095
0 3760 4095
0 3758 4095
0 4027 0
0 4050 0
0 4071 0
0 4092 0
0 4095 0
0 4095 0
0 4095 534
0 4095 872
0 4095 1127
0 4095 1347
0 4095 1548
0 4095 1738
0 4095 1920
0 4095 2097
0 4095 2269
0 4095 2438
0 4095 2603
0 4095 2766
0 4095 2926
0 4095 3082
0 4095 3235
0 4095 3385
0 4095 3531
0 4090 3672
0 4065 3809
0 4037 3942
0 4008 4070
0 3993 4095
0 3990 4095
0 3987 4095
0 3983 4095
0 3978 4095
0 3973 4095
0 4095 0
0 4095 0
0 4095 0
0 4095 0
0 4095 0
0 4095 471
0 4095 821
0 4095 1076
0 4095 1294
0 4095 1491
0 4095 1676
0 4095 1853
0 4095 2024
0 4095 2191
0 4095 2354
0 4095 2515
0 4095 2674
0 4095 2830
0 4095 2983
0 4095 3134
0 4095 3282
0 4095 3427
0 4095 3569
0 4095 3707
0 4095 3840
0 4095 3970
0 4095 4095
0 4095 4095
0 4095 4095
0 4095 4095
0 4095 4095
0 4095 4095
0 4095 4095
0 4095 0
0 4095 0
0 4095 0
0 4095 0
0 4095 442
0 4095 791
0 4095 1041
0 4095 1253
0 4095 1450
