examples/lut/ARRI_LogC2Video_709_autodesk3d_33.3dl
0 1024 2048 3071 4095
0 0 0
0 0 104
0 0 549
0 0 1093
0 0 1688
0 508 0
0 550 528
0 0 1738
0 0 2636
0 0 3139
0 2145 0
0 2390 107
0 2288 2226
0 1800 3454
0 1194 4095
0 3841 0
0 3996 951
0 4016 2531
0 3859 3766
0 3758 4095
0 4095 1204
0 4095 2120
0 4095 3006
0 4095 3867
0 4095 4095
279 0 0
508 0 423
568 0 1263
324 0 1946
0 0 2488
613 673 0
614 614 614
44 0 2334
0 0 3570
0 0 3834
0 2560 0
0 2709 0
0 2515 2453
0 1728 4095
0 1603 4095
0 4095 0
0 4095 0
0 4095 2342
0 4095 4095
0 4031 4095
0 4095 390
0 4095 1729
0 4095 2791
0 4095 3778
1238 4095 4095
1139 0 0
1663 0 579
1785 0 1580
1572 0 2340
1288 0 2814
2384 530 0
2744 85 594
2741 0 2461
2389 0 3786
1996 0 4095
2490 2662 0
2552 2715 0
2488 2488 2488
2291 1656 4095
2373 1804 4095
2244 4095 0
1060 4095 0
0 4095 2035
0 4095 4081
1505 3999 4095
2509 4095 0
2191 4095 1655
1972 4095 2721
2236 4095 3685
2988 4095 4095
2092 0 0
2626 0 544
2749 0 1497
2549 0 2272
2253 0 2772
3637 324 0
4095 0 732
4095 0 2334
3948 0 3558
3496 0 4095
4095 2705 0
4095 2617 0
4095 2345 2511
4095 1487 4095
4095 1932 4095
4069 4095 0
4095 4095 0
4046 4095 2168
3909 3909 3909
3873 3833 4095
3712 4095 1431
3639 4095 2309
3576 4095 3047
3677 4095 3782
3893 4095 4095
2929 0 0
3291 0 579
3365 0 1422
3247 0 2159
3068 0 2744
4095 744 0
4095 0 1153
4095 0 2307
4095 0 3356
4095 0 4073
4095 2914 0
4095 2847 1309
4095 2618 2746
4095 2263 4095
4095 2613 4095
4095 4095 141
4095 4095 1740
4095 4021 2830
4095 3852 3867
4095 3865 4095
4095 4095 2585
4095 4095 3191
4095 4095 3670
4095 4095 4018
4095 4095 4095
