examples/lut/ARRI_LogC2Video_709_autodesk3d_33.3dl
0 512 1024 1536 2048 2559 3071 3583 4095
0 0 0
0 0 14
0 0 104
0 0 299
0 0 549
0 0 815
0 0 1093
0 0 1389
0 0 1688
0 105 0
0 110 103
0 70 355
0 0 735
0 0 1187
0 0 1575
0 0 1896
0 0 2192
0 0 2463
0 508 0
0 557 77
0 550 528
0 358 1107
0 0 1738
0 0 2266
0 0 2636
0 0 2911
0 0 3139
0 1230 0
0 1348 0
0 1409 503
0 1366 1325
0 1137 2095
0 565 2728
0 0 3176
0 0 3482
0 0 3707
0 2145 0
0 2295 0
0 2390 107
0 2395 1375
0 2288 2226
0 2076 2927
0 1800 3454
0 1503 3832
0 1194 4095
0 3041 0
0 3167 0
0 3252 147
0 3275 1490
0 3220 2319
0 3100 3021
0 2936 3602
0 2756 4068
0 2669 4095
0 3841 0
0 3932 0
0 3996 951
0 4028 1817
0 4016 2531
0 3957 3182
0 3859 3766
0 3765 4095
0 3758 4095
0 4095 0
0 4095 895
0 4095 1669
0 4095 2276
0 4095 2842
0 4095 3385
0 4095 3893
0 4095 4095
0 4095 4095
0 4095 1204
0 4095 1682
0 4095 2120
0 4095 2558
0 4095 3006
0 4095 3450
0 4095 3867
0 4095 4095
0 4095 4095
42 0 0
91 0 70
140 0 267
158 0 565
115 0 923
18 0 1246
0 0 1548
0 0 1847
0 0 2132
129 151 0
127 127 127
92 18 495
0 0 1024
0 0 1608
0 0 2097
0 0 2415
0 0 2661
0 0 2871
0 616 0
0 651 0
0 609 587
0 267 1317
0 0 2095
0 0 2777
0 0 3169
0 0 3381
0 0 3536
0 1439 0
0 1535 0
0 1568 401
0 1483 1440
0 1168 2349
0 0 3143
0 0 3662
0 0 3925
0 0 4082
0 2395 0
0 2537 0
0 2607 0
0 2585 1359
0 2448 2383
0 2179 3231
0 1806 3852
0 1407 4095
0 1332 4095
0 3264 0
0 3394 0
0 3483 0
0 3506 1319
0 3445 2357
0 3295 3213
0 3080 3908
0 2925 4095
0 2900 4095
0 4028 0
0 4095 0
0 4095 326
0 4095 1630
0 4095 2488
0 4095 3266
0 4049 3953
0 3975 4095
0 3931 4095
0 4095 0
0 4095 562
0 4095 1476
0 4095 2130
0 4095 2752
0 4095 3362
0 4095 3928
0 4095 4095
0 4095 4095
0 4095 912
0 4095 1447
0 4095 1928
0 4095 2410
0 4095 2899
0 4095 3382
0 4095 3828
0 4095 4095
0 4095 4095
279 0 0
401 0 129
508 0 423
577 0 828
568 0 1263
478 0 1631
324 0 1946
80 0 2235
0 0 2488
542 141 0
631 83 114
699 0 605
710 0 1247
596 0 1930
291 0 2495
0 0 2809
0 0 3007
0 0 3168
613 673 0
632 693 0
614 614 614
505 85 1437
44 0 2334
0 0 3100
0 0 3570
0 0 3748
0 0 3834
0 1570 0
0 1635 0
0 1634 315
0 1521 1486
0 1155 2479
0 0 3365
0 0 4020
0 0 4095
0 0 4095
0 2560 0
0 2668 0
0 2709 0
0 2668 1332
0 2515 2453
0 2214 3405
0 1728 4095
0 1600 4095
0 1603 4095
0 3424 0
0 3552 0
0 3645 0
0 3661 1090
0 3592 2347
0 3430 3347
0 3174 4095
0 3123 4095
0 3084 4095
0 4095 0
0 4095 0
0 4095 0
0 4095 1250
0 4095 2342
0 4095 3281
0 4095 4095
0 4095 4095
0 4031 4095
0 4095 0
0 4095 0
0 4095 1116
0 4095 1875
0 4095 2578
0 4095 3274
0 4095 3915
0 4095 4095
0 4095 4095
0 4095 390
0 4095 1174
0 4095 1729
0 4095 2259
0 4095 2791
0 4095 3312
0 4095 3778
0 4095 4095
1238 4095 4095
657 0 0
868 0 156
1051 0 539
1165 0 1018
1167 0 1491
1089 0 1893
970 0 2220
831 0 2493
674 0 2714
1149 24 0
1349 0 54
1495 0 664
1562 0 1378
1527 0 2112
1372 0 2689
1154 0 3014
949 0 3205
777 0 3346
1478 656 0
1607 640 0
1662 520 616
1682 0 1516
1631 0 2446
1470 0 3247
1251 0 3772
1075 0 3956
974 0 4041
1510 1623 0
1543 1658 0
1546 1640 247
1511 1511 1511
1414 1120 2507
1214 0 3463
944 0 4095
959 0 4095
1092 0 4095
1086 2639 0
825 2715 0
581 2735 0
385 2673 1344
0 2516 2473
0 2204 3485
0 1692 4095
0 1706 4095
419 1749 4095
36 3524 0
0 3645 0
0 3722 0
0 3725 916
0 3651 2323
0 3480 3407
0 3252 4095
0 3230 4095
0 3202 4095
0 4095 0
0 4095 0
0 4095 0
0 4095 643
0 4095 2174
0 4095 3235
0 4095 4095
0 4095 4095
0 4055 4095
1034 4095 0
0 4095 0
0 4095 483
0 4095 1537
0 4095 2348
0 4095 3137
0 4095 3854
0 4095 4095
0 4095 4095
1608 4095 0
1178 4095 964
426 4095 1599
0 4095 2166
0 4095 2724
0 4095 3253
711 4095 3724
1621 4095 4093
2315 4095 4095
1139 0 0
1435 0 142
1663 0 579
1782 0 1085
1785 0 1580
1700 0 2001
1572 0 2340
1431 0 2608
1288 0 2814
1858 0 0
2154 0 0
2356 0 658
2446 0 1409
2401 0 2138
2216 0 2691
1983 0 3045
1771 0 3264
1603 0 3417
2384 530 0
2607 416 0
2744 85 594
2788 0 1548
2741 0 2461
2606 0 3253
2389 0 3786
2163 0 4037
1996 0 4095
2583 1619 0
2724 1621 0
2791 1587 168
2775 1444 1530
2744 1002 2533
2672 0 3491
2527 0 4095
2440 0 4095
2355 0 4095
2490 2662 0
2536 2710 0
2552 2715 0
2535 2649 1361
2488 2488 2488
2402 2168 3492
2291 1656 4095
2316 1704 4095
2373 1804 4095
2331 3583 0
2170 3683 0
2005 3739 0
1864 3733 811
1775 3639 2328
1648 3463 3417
1481 3248 4095
1689 3239 4095
2001 3236 4095
2244 4095 0
1830 4095 0
1060 4095 0
0 4095 0
0 4095 2035
0 4095 3153
0 4095 4081
0 4073 4095
1505 3999 4095
2369 4095 0
2081 4095 0
1641 4095 0
912 4095 1247
0 4095 2175
0 4095 3042
17 4095 3774
1354 4095 4095
2100 4095 4095
2509 4095 0
2345 4095 1016
2191 4095 1655
2059 4095 2204
1972 4095 2721
2018 4095 3227
2236 4095 3685
2581 4095 4039
2988 4095 4095
1621 0 0
1946 0 115
2191 0 565
2317 0 1069
2320 0 1560
2235 0 1988
2104 0 2338
1954 0 2611
1804 0 2817
2456 0 0
2819 0 0
3062 0 638
3147 0 1361
3076 0 2038
2888 0 2580
2652 0 2961
2437 0 3230
2264 0 3436
3122 348 0
3464 0 0
3658 0 612
3722 0 1541
3672 0 2411
3521 0 3165
3270 0 3694
3012 0 4018
2804 0 4095
3433 1612 0
3700 1563 0
3840 1489 286
3903 1297 1545
3892 727 2547
3813 0 3472
3670 0 4095
3505 0 4095
3313 0 4095
3455 2674 0
3651 2685 0
3765 2666 0
3810 2592 1354
3779 2424 2499
3739 2082 3507
3676 1551 4095
3613 1654 4095
3518 1830 4095
3400 3621 0
3463 3687 0
3502 3720 0
3504 3696 831
3470 3592 2347
3411 3411 3411
3344 3187 4095
3344 3187 4095
3363 3212 4095
3278 4095 0
3167 4095 0
3006 4095 0
2863 4095 0
2772 4095 2006
2762 4095 3133
2782 4021 3984
2875 3945 4095
3048 3906 4095
3204 4095 0
3076 4095 0
2904 4095 0
2710 4095 1290
2591 4095 2229
2590 4095 3053
2677 4095 3721
2853 4095 4095
3106 4095 4095
3186 4095 674
3117 4095 1407
3047 4095 1923
2975 4095 2374
2928 4095 2823
2955 4095 3281
3094 4095 3700
3297 4095 4004
3527 4095 4095
2092 0 0
2401 0 98
2626 0 544
2741 0 1026
2749 0 1497
2675 0 1920
2549 0 2272
2399 0 2550
2253 0 2772
2933 0 0
3260 0 31
3487 0 664
3576 0 1312
3525 0 1923
3370 0 2439
3184 0 2851
3002 0 3176
2841 0 3434
3637 324 0
3975 0 0
4095 0 732
4095 0 1551
4095 0 2334
4095 0 3022
3948 0 3558
3706 0 3942
3496 0 4095
4032 1664 0
4095 1567 0
4095 1414 548
4095 1153 1602
4095 379 2538
4095 0 3420
4095 0 4095
4095 0 4095
4088 0 4095
4095 2705 0
4095 2678 0
4095 2617 0
4095 2530 1433
4095 2345 2511
4095 1997 3505
4095 1487 4095
4095 1652 4095
4095 1932 4095
4095 3653 0
4095 3677 0
4095 3676 0
4095 3629 1061
4095 3518 2364
4095 3337 3391
4095 3106 4095
4095 3129 4095
4095 3197 4095
4069 4095 0
4094 4095 0
4095 4095 0
4095 4095 690
4046 4095 2168
3976 4073 3176
3909 3909 3909
3878 3839 4095
3873 3833 4095
3853 4095 0
3808 4095 0
3747 4095 1011
3672 4095 1706
3612 4095 2456
3585 4095 3158
3602 4095 3727
3645 4095 4095
3730 4091 4095
3712 4095 1431
3676 4095 1905
3639 4095 2309
3600 4095 2675
3576 4095 3047
3600 4095 3442
3677 4095 3782
3781 4095 4006
3893 4095 4095
2538 0 0
2804 0 105
2989 0 543
3084 0 999
3091 0 1443
3025 0 1847
2912 0 2194
2791 0 2491
2675 0 2746
3344 0 0
3603 0 153
3782 0 746
3856 0 1315
3837 0 1859
3753 0 2352
3629 0 2777
3490 0 3133
3354 0 3427
4018 507 0
4095 92 150
4095 0 936
4095 0 1616
4095 0 2288
4095 0 2909
4095 0 3435
4095 0 3854
4066 0 4095
4095 1765 0
4095 1664 0
4095 1550 942
4095 1349 1743
4095 901 2552
4095 0 3336
4095 0 4004
4095 0 4095
4095 0 4095
4095 2773 0
4095 2758 0
4095 2705 620
4095 2603 1645
4095 2432 2585
4095 2156 3484
4095 1765 4095
4095 1969 4095
4095 2242 4095
4095 3703 0
4095 3703 0
4095 3673 0
4095 3603 1459
4095 3489 2487
4095 3329 3384
4095 3150 4095
4095 3186 4095
4095 3275 4095
4095 4095 0
4095 4095 0
4095 4095 400
4095 4095 1544
4095 4095 2469
4095 3977 3255
4095 3854 3869
4095 3798 4095
4095 3819 4095
4095 4095 552
4095 4095 1323
4095 4095 1804
4095 4095 2251
4095 4095 2788
4095 4095 3336
4092 4095 3785
4060 4060 4060
4052 4045 4095
4074 4095 2040
4046 4095 2417
4019 4095 2753
3994 4095 3056
3974 4095 3353
3972 4095 3659
3990 4095 3900
4023 4095 4041
4060 4091 4090
2929 0 0
3144 0 151
3291 0 579
3364 0 1007
3365 0 1422
3318 0 1808
3247 0 2159
3160 0 2470
3068 0 2744
3690 0 0
3889 0 344
4023 0 871
4095 0 1375
4095 0 1866
4089 0 2329
4016 0 2747
3918 0 3114
3809 0 3428
4095 744 0
4095 529 554
4095 0 1153
4095 0 1729
4095 0 2307
4095 0 2861
4095 0 3356
4095 0 3765
4095 0 4073
4095 1895 0
4095 1860 621
4095 1781 1301
4095 1632 1941
4095 1374 2610
4095 924 3267
4095 0 3839
4095 0 4095
4095 300 4095
4095 2914 0
4095 2896 511
4095 2847 1309
4095 2757 2007
4095 2618 2746
4095 2435 3481
4095 2263 4095
4095 2385 4095
4095 2613 4095
4095 3751 0
4095 3729 527
4095 3683 1330
4095 3608 2010
4095 3505 2732
4095 3387 3437
4095 3281 4021
4095 3310 4095
4095 3418 4095
4095 4095 141
4095 4095 1175
4095 4095 1740
4095 4095 2259
4095 4021 2830
4095 3930 3407
4095 3852 3867
4095 3820 4095
4095 3865 4095
4095 4095 1652
4095 4095 2083
4095 4095 2459
4095 4095 2808
4095 4095 3179
4095 4095 3569
4095 4080 3871
4095 4047 4050
4095 4046 4095
4095 4095 2585
4095 4095 2905
4095 4095 3191
4095 4095 3443
4095 4095 3670
4095 4095 3874
4095 4095 4018
4093 4094 4082
4095 4095 4095
